!!!COM: Anonymous
!!!CDT: [?]
!!!OTL: Bądź pozdrowiona
!!!TXO: Polish
!!!ODT: 
!!!GTL: Hymnbook E
!!!ARL: Opactwo św. Wojciecha, Staniątki 
!!!voices:	3
**kern	**kern	**text	**text	**kern	**text	**text
*staff3	*staff2	*staff2	*staff2	*staff1	*staff1	*staff1
*I"Basso	*I"Canto II	*	*	*I"Canto I	*	*
=1-	=1-	=1-	=1-	=1-	=1-	=1-
*clefF4	*clefG2	*	*	*clefG2	*	*
*k[b-]	*k[b-]	*	*	*k[b-]	*	*
*M3/2	*M3/2	*	*	*M3/2	*	*
2G	2g	Bądź	Cie-	2g	Bądź	Cie-
4E-	2g	poz-	-bie	2b-	poz-	-bie
4D	.	.	.	.	.	.
2C	4.a	-dro-	wzy-	4.cc	-dro-	wzy-
.	8g	.	.	8b-	.	.
=2	=2	=2	=2	=2	=2	=2
1D	1f#	-wio-	-wa-	1a	-wio-	-wa-
2GG	2g	-na	-ją	2g	-na	-ją
=3	=3	=3	=3	=3	=3	=3
2.BB-	2.b-	Pa-	wszys-	2.dd	Pa-	wszys-
4BB-	4a	-nien-	-cy	4dd	-nien-	-cy
2E-	4g	-ko	grzesz-	2ee-	-ko	grzesz-
.	4a	.	.	.	.	.
=4	=4	=4	=4	=4	=4	=4
2BB-	2b-	Ma-	-ni	2dd	Ma-	-ni
1F	2b-	-ry-	i	1cc	-ry-	i
.	2a	.	.	.	.	.
=5	=5	=5	=5	=5	=5	=5
1.BB-	1.b-	-ja	ja	1.b-	-ja	ja
=6:|!	=6:|!	=6:|!	=6:|!	=6:|!	=6:|!	=6:|!
2F	2f	Boś	.	2a	Boś	.
2F	2a	Ty	.	2cc	Ty	.
2E	2g	jest	.	2cc	jest	.
=7	=7	=7	=7	=7	=7	=7
1F	1a	Mat-	.	1cc	Mat-	.
2F	2a	-ka	.	2cc	-ka	.
=8	=8	=8	=8	=8	=8	=8
2.BB-	2.b-	Sy-	.	2.dd	Sy-	.
4BB-	4dd	-no-	.	4ff	-no-	.
2E-	4g	-wi	.	2ee-	-wi	.
.	4a	.	.	.	.	.
=9	=9	=9	=9	=9	=9	=9
4G	2b-	Bo-	.	2dd	Bo-	.
4E-i	.	.	.	.	.	.
2F	2.b-	-że-	.	1cc	-że-	.
2FF	.	.	.	.	.	.
.	4a	.	.	.	.	.
=10	=10	=10	=10	=10	=10	=10
1.BB-	1.b-	-mu	.	1.b-	-mu	.
=11	=11	=11	=11	=11	=11	=11
2BB-	2b-	A	.	2dd	A	.
4C	2a	stąd	.	2cc	stąd	.
4D	.	.	.	.	.	.
4E-	2g	po-	.	2b-	po-	.
4C	.	.	.	.	.	.
=12	=12	=12	=12	=12	=12	=12
1D	1f#	-cie-	.	1a	-cie-	.
2GG	2g	-cha	.	2g	-cha	.
=13	=13	=13	=13	=13	=13	=13
2.D	2.f#	każ-	.	2.a	każ-	.
4D	4g	-de-	.	4b-	-de-	.
4C	4e-i	-mu	.	2cc	-mu	.
4D	4f#	.	.	.	.	.
=14	=14	=14	=14	=14	=14	=14
2E-	2g	grzesz-	.	2b-	grzesz-	.
2C	2.g	-ne-	.	1a	-ne-	.
2D	.	.	.	.	.	.
.	4f#	.	.	.	.	.
=15	=15	=15	=15	=15	=15	=15
1.GG	1.g	-mu.	.	1.g	-mu.	.
==	==	==	==	==	==	==
*-	*-	*-	*-	*-	*-	*-
!!!GTL: Hymnbook E
!!!EFL: 114/117
!!!YEM: Creative Commons CC/BY/NC/SA 4.0
!!!ENC: Marcin Konik
!!!END: 
!!!EED: Marcin Konik
!!!EEV: 
!!!ONB: Translated from MusicXML and edited by Marcin Konik
!!!CharacterEncoding: utf-8
!!!RDF**kern: l=long note in original notation
!!!RDF**kern: i=editorial accidental
!!muse2ps: z14jc180F
